src/lib/packages/icons/src/assets/line/referee-card.svg

<svg xmlns="http://www.w3.org/2000/svg" width="24" height="24" fill="none"><path fill="currentColor" d="M19.98 15.54a5.715 5.715 0 0 0-1.63-3.25l-2.6-2.6V4.64c0-1.56-.83-2.39-2.39-2.39H6.64c-1.56 0-2.39.83-2.39 2.39v10.72c0 1.54.8 2.36 2.32 2.39 1.24 2.11 1.95 2.83 2.9 3.79.15.15.34.22.53.22s.38-.07.53-.22c.29-.29.29-.77 0-1.06-.8-.8-1.35-1.36-2.21-2.72h5.04c.61 0 1.06-.13 1.39-.33l.61.98a.747.747 0 1 0 1.27-.79l-4.34-6.94a.805.805 0 0 1 .12-1.02c.32-.32.84-.32 1.17 0l3.71 3.71c.65.65 1.07 1.5 1.2 2.4l.76 5.35c.05.37.37.64.74.64h.11c.41-.06.7-.44.64-.85l-.76-5.35v-.02Zm-8.62-6.96c-.77.77-.9 1.95-.33 2.88l2.93 4.69c-.11.06-.29.1-.6.1H6.64c-.72 0-.89-.17-.89-.89V4.64c0-.72.17-.89.89-.89h6.72c.72 0 .89.17.89.89v3.64c-.89-.55-2.14-.45-2.89.31v-.01Z"/></svg>

<svg width="24" height="24" viewBox="0 0 24 24" fill="none" xmlns="http://www.w3.org/2000/svg">
<path d="M19.98 15.54C19.81 14.32 19.23 13.16 18.35 12.29L15.75 9.69V4.64001C15.75 3.08001 14.92 2.25 13.36 2.25H6.64C5.08 2.25 4.25 3.08001 4.25 4.64001V15.36C4.25 16.9 5.05001 17.72 6.57001 17.75C7.81001 19.86 8.52 20.58 9.47 21.54C9.62 21.69 9.81 21.76 10 21.76C10.19 21.76 10.38 21.69 10.53 21.54C10.82 21.25 10.82 20.77 10.53 20.48C9.73 19.68 9.18001 19.12 8.32001 17.76H13.36C13.97 17.76 14.42 17.63 14.75 17.43L15.36 18.41C15.58 18.76 16.04 18.87 16.39 18.65C16.74 18.43 16.85 17.97 16.63 17.62L12.29 10.68C12.08 10.35 12.13 9.93 12.41 9.66C12.73 9.34 13.25 9.34 13.58 9.66L17.29 13.37C17.94 14.02 18.36 14.87 18.49 15.77L19.25 21.12C19.3 21.49 19.62 21.76 19.99 21.76C20.03 21.76 20.06 21.76 20.1 21.76C20.51 21.7 20.8 21.32 20.74 20.91L19.98 15.56V15.54ZM11.36 8.57999C10.59 9.34999 10.46 10.53 11.03 11.46L13.96 16.15C13.85 16.21 13.67 16.25 13.36 16.25H6.64C5.92 16.25 5.75 16.08 5.75 15.36V4.64001C5.75 3.92001 5.92 3.75 6.64 3.75H13.36C14.08 3.75 14.25 3.92001 14.25 4.64001V8.28C13.36 7.73 12.11 7.83 11.36 8.59V8.57999Z" fill="currentColor"/>
</svg>
